X: 1
T: the Barrowburn Reel
C: Addie Harper
%D:1998
R: reel
S: Fiddle Hell Online 2022-4-10 handout for Hazel Wrigley workshop
Z: 2022 John Chambers <jc:trillian.mit.edu>
M: C|	% Actually "none"
L: 1/8
K: D
|:\
"D"D2 F/E/D "D7"FAAd | "G"B2BA "Ddim"BddB | "D"A2AB "Bm"d2de | "Em"fedB "A7"AFEF |
"D"D2 F/E/D "D7"FAAd | "G"B2BA "Ddim"Bdde | "D"f2af "Em"egfe | "A7"dBAB "D"d2z2 :|
|:\
"Em"e2ef "A7"ecBA | "D"f2fg "Bm"fdBA | "Em"g2ga "A7"gecA | "D"a2ag "F#dim"f2ef |
"Em"g2ga "A7"gecA | "D"a2ag "Bm"f2ef | "Em"g2ag "E7"f2ed |1 "A7"BAAB "D"d2z2 :|2 "A7"BAAB "D"d2 |]
